!!!COM:	Messiaen
!!!OTL:	782_Mes-25/5/24-31
**kern	**dynam	**kern	**kern	**dynam
*part2	*part2	*part1	*part1	*part1
*staff3	*	*staff2	*staff1	*
*I"Pedals	*	*I"Organ	*	*
*I'Ped.	*	*I'Org.	*	*
*clefF4	*	*clefF4	*clefF4	*
*k[]	*	*k[]	*k[]	*
*C:	*	*C:	*C:	*
*M2/4	*	*M2/4	*M2/4	*
=1	=	=	=	=
8.EEnL	mf	[4CC [4DD	16FF#XKL 16BB-X 16D	mf
.	.	.	8EE 8AA-X 8E-X	.
[16EE-X^^Jk	.	.	[16GGJk [16BBn [16F#X	.
4EE-]	.	16CCKL] 16DD]	8GGL] 8BB] 8F#]	.
.	.	[8.DD-XJ [8.FFn	.	.
.	.	.	[8AA-XJ [8C [8En	.
=2	=2	=2	=2	=2
16FF#X^^KL	.	16DD-LL] 16FFn]	8AA-XL] 8C] 8En]	.
8CCn^^	.	16DDnJ 16FF#X	.	.
.	.	8FFnJ 8GG	[8BB-XJ [8D [8E-X	.
(8qAAn^^/	.	.	.	.
[16CCn^^Jk)	.	.	.	.
8.CCL]	.	8.FF#XL 8.AA-X	8.BB-L] 8.D] 8.E-]	.
[16EEnJk	.	[16GGJk [16BBn	16BBnJk 16E-X 16B-X	.
=3	=3	=3	=3	=3
8EEL]	.	4GG] 4BB]	8CL 8En 8G	.
[8EE-X^^J	.	.	[8DJ [8F#X [8Bn	.
8.EE-L]	.	4AA-X 4C	16DKL] 16F#] 16B]	.
.	.	.	[8.EnJ [8.B-X [8.d	.
16FF#X^^Jk	.	.	.	.
=4	=4	=4	=4	=4
4CCn	.	16BBnKL 16D-X	8En] 8B-] 8d]	.
.	.	8.CJ 8.Dn	.	.
.	.	.	4A-X 4Bn 4e-X	.
(8qAAn/	.	.	.	.
8CC^^L)	.	8D-XL 8Fn	.	.
[8EEnJ	.	[8DnJ [8F#X	16GLL 16B-X 16d	.
.	.	.	[16F#XJJ [16A-X [16c	.
=5	=5	=5	=5	=5
!!linebreak:original
16EEKL]	.	8.DL] 8.F#]	16F#KL 16A-] 16c]	.
[8.EE-X^^J	.	.	[8.EnJ [8.G [8.Bn	.
.	.	[16D-XJk [16Fn	.	.
8EE-L]	.	8.D-L] 8.F]	16EKL] 16G] 16B]	.
.	.	.	[8.BBnJ [8.E-X [8.B-X	.
(8qFF#X^^/	.	.	.	.
8CCJ)	.	.	.	.
.	.	[16CnJk [16D-	.	.
=6	=6	=6	=6	=6
16AAnKL	.	16CLL] 16D-]	8BBL] 8E-] 8B-]	.
[8.CC^^J	.	16BBnJ 16D-X	.	.
.	.	[8AA-XJ [8C	[8CJ [8Dn [8G	.
16CCKL]	.	16AA-KL] 16C]	16CLL] 16Dn] 16G]	.
8.EEnJ	.	[8.GGJ [8.BBn	16AA-XJ 16BB-X 16E-X	.
.	.	.	8CJ 8Dn 8G	.
=7	=7	=7	=7	=7
[4AAn	.	8GG] 8BB	4EE-X 4GG 4D	.
.	.	4FF#X 4AA-X	.	.
16AAKL]	.	.	8.EEnL 8.AA-X 8.C	.
8EE-X	.	.	.	.
.	.	8FFn 8GG	.	.
[16AAJk	.	.	[16FF#XJk [16BBn [16BB-X	.
=8	=8	=8	=8	=8
*M5/16	*	*M5/16	*M5/16	*
8.AA]	.	8.DDn 8.FF#X	4FF#] 4BB] 4BB-X]	.
16EE-X	.	16DD-X 16FFn	.	.
16r	.	16r	16r	.
==	==	==	==	==
*-	*-	*-	*-	*-
!!!system-decoration: {(s1,s2)}s3
!!!ONB: Converted from MusicXML on 2020/01/17
